Catalina-light/actions/16/text-frame-link.svg

<svg width="16" height="16" viewBox="0 0 16 16" xmlns="http://www.w3.org/2000/svg">
<defs>
<style id="current-color-scheme" type="text/css">.ColorScheme-Text { color:#5c616c; } .ColorScheme-Highlight { color:#5294e2; }</style>
</defs>
<path class="ColorScheme-Text" d="m6 1-5 14h2.5l1.0625-3h4.4375v-4h1.6406l-2.6406-7h-2zm1 4 1.75 5h-3.5l1.75-5zm3 4s7e-3 5.9949 0 6l4-3-4-3z" fill="#363636"/>
</svg>

<svg xmlns="http://www.w3.org/2000/svg" width="16" height="16" viewBox="0 0 16 16">
 <defs>
  <style id="current-color-scheme" type="text/css">
   .ColorScheme-Text { color:#5c616c; } .ColorScheme-Highlight { color:#5294e2; }
  </style>
 </defs>
 <path style="fill:currentColor" class="ColorScheme-Text" d="M 6 1 L 1 15 L 3.5 15 L 4.5625 12 L 9 12 L 9 8 L 10.640625 8 L 8 1 L 6 1 z M 7 5 L 8.75 10 L 5.25 10 L 7 5 z M 10 9 C 10 9 10.007 14.9949 10 15 L 14 12 L 10 9 z"/>
</svg>
